X:300
T:Old Copperplate
M:4/4
L:1/8
S:Ir-Trad, 3/97: Caroline Foty (FotyC@NASD.COM)
R:reel
N:One of my favorite
N:tunes - try playing 'McFadden's Handsome Daughter' after it.
K:ADor
A2EA {d}cAAe|aged cAFA|G2DG BGBd|gedc BAGB|A2EA {d}cAAe|aged cdBc|
ABcd ef{a}ge|1 aged cABG:|2 aged cAAe||:ageg agbg|aged cAAf|gede ~g2fa|
gedc BGGe|ageg agbg|aged cdBc|ABcd ef{a}ge|1 aged cAAe:|2 aged cdBc ||
